assets/img/icons/loyalty_heart.svg

<svg fill="none" height="64" viewBox="0 0 64 64" width="64" xmlns="http://www.w3.org/2000/svg"><path d="m45 28.2108c0-3.4301-2.9101-6.2108-6.5-6.2108-4.3333 0-6.5 4.1905-6.5 4.1905s-2.1667-4.1905-6.5-4.1905c-3.5899 0-6.5 2.7807-6.5 6.2108 0 .7786.1499 1.5238.4237 2.2105 1.7142 4.8142 8.227 10.5531 12.0791 13.3984.3001.2217.7078.2412 1.0276.0462 4.471-2.7261 12.4696-9.1769 12.4696-15.6551z" fill="#fff" stroke="#000" stroke-linejoin="round" stroke-width="2"/><path clip-rule="evenodd" d="m42.2504 33.4642c-2.5561-2.7464-6.2026-4.4642-10.2504-4.4642-3.9073 0-7.4408 1.6007-9.9805 4.1822 2.4965 3.7428 6.7533 7.5313 9.5216 9.6457.277.2116.6533.2302.9485.0441 2.8718-1.8108 7.3204-5.3431 9.7608-9.4078z" fill="#c4f0f5" fill-rule="evenodd"/><g stroke="#000" stroke-width="2"><path d="m9.23932 35.3093c-.72849-5.0104.21665-10.1212 2.68888-14.5397 2.4721-4.4185 6.3332-7.8978 10.9843-9.8982 4.6512-2.00047 9.8324-2.4103 14.7402-1.16594 4.9078 1.24434 9.2679 4.07334 12.404 8.04824"/><path d="m3 29 6 6 6-6"/><path d="m49 35 6-6 6 6"/><path d="m54.8817 29.6707c.5128 5.0371-.6508 10.1026-3.3104 14.4109s-6.6664 7.6186-11.3991 9.4176-9.9268 1.986-14.7767.5322c-4.8498-1.4539-9.0844-4.4675-12.047-8.5733"/></g></svg>

<svg width="64" height="64" viewBox="0 0 64 64" fill="none" xmlns="http://www.w3.org/2000/svg">
<path d="M45 28.2108C45 24.7807 42.0899 22 38.5 22C34.1667 22 32 26.1905 32 26.1905C32 26.1905 29.8333 22 25.5 22C21.9101 22 19 24.7807 19 28.2108C19 28.9894 19.1499 29.7346 19.4237 30.4213C21.1379 35.2355 27.6507 40.9744 31.5028 43.8197C31.8029 44.0414 32.2106 44.0609 32.5304 43.8659C37.0014 41.1398 45 34.689 45 28.2108Z" fill="white" stroke="black" stroke-width="2" stroke-linejoin="round"/>
<path fill-rule="evenodd" clip-rule="evenodd" d="M42.2504 33.4642C39.6943 30.7178 36.0478 29 32 29C28.0927 29 24.5592 30.6007 22.0195 33.1822C24.516 36.925 28.7728 40.7135 31.5411 42.8279C31.8181 43.0395 32.1944 43.0581 32.4896 42.872C35.3614 41.0612 39.81 37.5289 42.2504 33.4642Z" fill="#C4F0F5"/>
<path d="M9.23932 35.3093C8.51083 30.2989 9.45597 25.1881 11.9282 20.7696C14.4003 16.3511 18.2614 12.8718 22.9125 10.8714C27.5637 8.87093 32.7449 8.4611 37.6527 9.70546C42.5605 10.9498 46.9206 13.7788 50.0567 17.7537" stroke="black" stroke-width="2"/>
<path d="M3 29L9 35L15 29" stroke="black" stroke-width="2"/>
<path d="M49 35L55 29L61 35" stroke="black" stroke-width="2"/>
<path d="M54.8817 29.6707C55.3945 34.7078 54.2309 39.7733 51.5713 44.0816C48.9117 48.3899 44.9049 51.7002 40.1722 53.4992C35.4395 55.2982 30.2454 55.4852 25.3955 54.0314C20.5457 52.5775 16.3111 49.5639 13.3485 45.4581" stroke="black" stroke-width="2"/>
</svg>
